!! 00045] TT[TB
!! Zh. Ch. XM-8001 (XM75116001) (Peking: LP 23205/206)
!!!OTL: Taiyang guangmang zhao yao zhai
!!!ARE: Hunan
!! Ethnic Group: Yao
!! MM,
!!!SCT: C1230
!!!YEM: Copyright 1995, estate of Helmut Schaffrath.
**kern
*ICvox
*Ivox
*M2/4
*k[]
*C:
{8dd
8g
8b
8a
=1
2g
=2
8g
8g
8cc
16a
16cc
=3
4.dd
8ee}
=4
{8g
8cc
8.b
16a
=5
8g
8a
4g
=6
8cc
16a
16cc
8dd
8a
=7
2g}
=8
{8g
8g
8b
8a
=9
2g
=10
8g
8g
8cc
16a
16cc
=11
4.dd
8ee}
=12
{8g
8cc
8.b
16a
=13
8g
8a
4g
=14
8cc
16a
16cc
8dd
8a
=15
2g}
=16
{8g
8g
8dd
16a
16cc
=17
4.dd
8ee
=18
8g
8g
8b
8a
=19
2g}
=20
{8g
8g
8dd
8dd
=21
4.b
8a
=22
8g
8g
8b
8a
=23
2g}
=24
{8dd
8g
8b
8a
=25
2g
=26
8g
8g
8cc
16a
16cc
=27
4.dd
8ee}
=28
{8g
8cc
8.b
16a
=29
8g
8a
4g
=30
8cc
16a
16cc
8dd
8a
=31
2g}
=32
{8g
8g
8b
8a
=33
2g
=34
8g
8g
8cc
16a
16cc
=35
4.dd
8ee}
=36
{8g
8cc
8.b
16a
=37
8g
8a
4g
=38
8cc
16a
16cc
8dd
8a
=39
2g}
=40
{8g
8g
8dd
16a
16cc
=41
4.dd
8ee
=42
8g
8g
8b
8a
=43
2g}
=44
{8g
8g
8dd
8dd
=45
4.b
8a
=46
8g
8g
8b
8a
=47
8g
8r}
{8b
8a
=48
[2g
=49
2g]}
=50
{8dd
8g
8b
8a
=51
2g
=52
8g
8g
8cc
16a
16cc
=53
2dd}
=54
{8g
8cc
8b
8a
=55
8g
8a
4g
=56
8cc
16a
16cc
8dd
8a
=57
2g}
=58
{8g
8g
8dd
16a
16cc
=59
4.dd
8ee
=60
8g
8g
8b
8a
=61
2g}
=62
{8g
8g
8dd
8dd
=63
4.b
8a
=64
8g
8g
8b
8a
=65
4g
4r}
=66
{8dd
8g
8b
8a
=67
2g
=68
8g
8g
8cc
16a
16cc
=69
2dd}
=70
{8g
8cc
8b
8a
=71
8g
8a
4g
=72
8cc
16a
16cc
8dd
8a
=73
2g}
=74
{8g
8g
8dd
16a
16cc
=75
4.dd
8ee
=76
8g
8g
8b
8a
=77
2g}
=78
{8g
8g
8dd
8dd
=79
4.b
8a
=80
8g
8g
8b
8a
=81
4g
4r}
=82
{4g
8g
8g
=83
4gg
4gg
=84
[2dd
=85
4.dd]
8ee
=86
8dd
8g
8b
8a
=87
4g}
{4gg
=88
[2gg
=89
4gg]
4dd
=90
[2gg
=91
2gg_
=92
2gg_
=93
8gg]
4.r}
==
!!!AGN: Xinminge
!! Noten kopiert. Von der Platte nur B-Seite, da A lediglich
!!    revolutionaere Lieder enthaelt.
!!    Einige Verzierungen. +++ Grundtonwechsel von C nach G!! +++
!!!ONB: ESAC (Essen Associative Code) Database: CHINA
!!!AMT: simple duple
!!!AIN: vox
!!!EED: Helmut Schaffrath
!!!EEV: 1.0
*-
!!!ONB: Tied note syntax fixed by Craig Sapp, 2004/05/03/
